X:1
T:Title
%%score ( 1 2 ) { ( 3 5 ) | 4 }
L:1/8
Q:1/4=105
M:6/8
K:Ab
V:1 treble nm="Grand Piano, Soprano"
V:2 treble 
V:3 bass nm="Choir Pad, Casting All Your Care"
V:5 bass 
V:4 bass 
V:1
 [CE] [CE]2 [CA] [CA]2 | [DB] [CA]2 [EG] [DF]2 | [CE] [CE]2 [Ec] [Ec]2 | %3
w: By~James~McGranahan * * *|||
 [Fd] [Ec]2- [Ec]2- [Ec]/ z/ | [Ec] [Gd]2 [Ac] [EB]2 | [EB] [Ec]2 [DB] [CA]2 | [EA] [DB]2 [FA]GF | %7
w: ||||
[M:12/8] [DG] [CA]2- [CA]/ z/ [CE]2 [CA] [Ec]2- [Ec]3- | %8
w: |
 [Ec]3- [Ec]/ z/ [DB][CA] [EG][DF][CE]- [CE]3- | [CE]3- [CE]3/2 z/ [CE]- [CE][EG][DB]- [DB]3- | %10
w: ||
 [DB]3- [DB]/ z/ [CA][B,G] [DF][DG][CA]- [CA]3- | [CA]3- [CA]3/2 z/ [CE]- [CE][CA]c- c2- [Ac]- | %12
w: ||
 [Ac-]2 [_Gc]- [Gc]/ z/ [GB][GA] [GB][Gc][Fd]- [Fd]3- | %13
w: |
 [Fd]3- [Fd]3/2 z/ d c[DB][Ee]- [Ee]2 [FA]- | [FA][Fd][Ec]- [Ec]2 [DB]- [DB][DB][CA]- [CA]3- | %15
w: ||
 [CA]6 z6 |] %16
w: |
V:2
 x6 | x6 | x6 | x6 | x6 | x6 | z3 z E2 |[M:12/8] x12 | x12 | x12 | x12 | z6 z2 E- E2 z | x12 | %13
 z3 z2 E- E/ z/ z z z3 | x12 | x12 |] %16
V:3
 A, A,2 E, E,2 | E, E,2 A, A,2 | A, A,2 A, A,2 | A, A,2- A,2- A,/ z/ | E E2 E D2 | %5
 D C2[K:bass] G, A,2 | A, F,2 B, B,2 |[M:12/8] B, A,2- A,/ z/ A,2 A, A,2- A, A,2- | %8
 A, A,2- A,/ z/ z z z2 A,- A,A,A, | A,A,A,- A,3/2 z/ z z2 G,- G,2 G,- | %10
 G,2 G,- G,3/2 z/ z z2 E,- E,E,E, | E,E,E,- E,3/2 z/ A,- A, .A,2 z B,C- | %12
 C[K:treble]DE- E/ z/ DC DED- D3- | D3- D3/2 z/[K:bass] G,- G,/ z/ G,C,- C,2 A,- | %14
 A,A,A,- A,2 G,- G,E,E,- E,3- | E,6 z6 |] %16
V:4
 A,, A,,2 A,, A,,2 | A,, A,,2 A,, A,,2 | A,, A,,2 .A,,3 | z6 | A, B,2 A, G,2 | G, A,2 E, F,2 | %6
 C, D,2 D, E,2 |[M:12/8] E, A,,2- A,,/ z/ A,,2 A,, A,,2- A,, A,,2- | %8
 A,, A,,2- A,,/ z/ z z z2 A,,- A,,A,,A,, | A,,A,,A,,- A,,3/2 z/ z z2 E,- E,2 E,- | %10
 E,2 E,- E,3/2 z/ z z2 A,,- A,,A,,A,, | A,,A,,A,,- A,,3/2 z/ A,,- A,, .A,,2 z3 | %12
 z A,,A,,- A,,3- A,,3/2 z/ B,,- B,,B,,B,, | B,,B,,B,,- B,,3/2 z/ B,, C, .D,2 z2 D,- | %14
 D,D,E,- E,2 E,- E, z A,,- A,,3- | A,,6 z6 |] %16
V:5
 x6 | x6 | x6 | x6 | x6 | x3[K:bass] x3 | x6 |[M:12/8] x12 | x12 | x12 | x12 | z6 z2 A,- A,3- | %12
 A,3[K:treble] z3 z6 | x5[K:bass] x7 | x12 | x12 |] %16

